assets/img/tasses/TassePiquante.svg

<?xml version="1.0" encoding="utf-8"?>
<!-- generated at drububu.com  -->
<!DOCTYPE svg PUBLIC "-//W3C//DTD SVG 1.1//EN" "http://www.w3.org/Graphics/SVG/1.1/DTD/svg11.dtd">
<svg version="1.1" preserveAspectRatio="xMinYMin meet" xmlns="http://www.w3.org/2000/svg" xmlns:xlink="http://www.w3.org/1999/xlink" x="0px" y="0px" width="22px" height="18px" viewBox="0 0 22 18">
<path d="M0 0h4v2h-2v2h-2v-4z" fill="rgba(255,255,255,0)"/>
<path d="M4 0h2v2h-2v-2z" fill="rgb(161,127,255)"/>
<path d="M6 0h2v2h-2v-2z" fill="rgba(255,255,255,0)"/>
<path d="M8 0h2v2h-2v-2z" fill="rgb(161,127,255)"/>
<path d="M10 0h2v2h-2v-2z" fill="rgba(255,255,255,0)"/>
<path d="M12 0h2v2h-2v-2z" fill="rgb(161,127,255)"/>
<path d="M14 0h8v6h-2v-2h-4v-2h-2v-2z" fill="rgba(255,255,255,0)"/>
<path d="M2 2h4v2h-4v-2z" fill="rgb(37,37,37)"/>
<path d="M6 2h2v2h-2v-2z" fill="rgb(152,107,191)"/>
<path d="M8 2h2v2h-2v-2z" fill="rgb(145,92,143)"/>
<path d="M10 2h2v2h-2v-2z" fill="rgb(152,107,191)"/>
<path d="M12 2h4v2h-4v-2z" fill="rgb(37,37,37)"/>
<path d="M0 4h2v10h-2v-10z" fill="rgb(37,37,37)"/>
<path d="M2 4h2v2h-2v-2z" fill="rgb(26,89,0)"/>
<path d="M4 4h2v2h-2v-2z" fill="rgb(34,117,0)"/>
<path d="M6 4h2v2h-2v-2z" fill="rgb(38,127,0)"/>
<path d="M8 4h2v2h-2v-2z" fill="rgb(26,89,0)"/>
<path d="M10 4h2v2h-2v-2z" fill="rgb(38,127,0)"/>
<path d="M12 4h2v2h-2v-2z" fill="rgb(34,117,0)"/>
<path d="M14 4h2v2h-2v-2z" fill="rgb(26,89,0)"/>
<path d="M16 4h4v2h-4v-2z" fill="rgb(37,37,37)"/>
<path d="M2 6h2v2h-2v-2z" fill="rgb(255,233,127)"/>
<path d="M4 6h4v2h-4v-2z" fill="rgb(255,204,0)"/>
<path d="M8 6h2v2h-2v-2z" fill="rgb(255,233,127)"/>
<path d="M10 6h4v2h-4v-2z" fill="rgb(255,204,0)"/>
<path d="M14 6h2v2h-2v-2z" fill="rgb(255,233,127)"/>
<path d="M16 6h2v2h-2v-2z" fill="rgb(38,127,0)"/>
<path d="M18 6h2v4h-2v-4z" fill="rgb(26,89,0)"/>
<path d="M20 6h2v4h-2v-4z" fill="rgb(37,37,37)"/>
<path d="M2 8h2v2h-2v-2z" fill="rgb(26,89,0)"/>
<path d="M4 8h2v2h-2v-2z" fill="rgb(34,117,0)"/>
<path d="M6 8h2v2h-2v-2z" fill="rgb(38,127,0)"/>
<path d="M8 8h2v2h-2v-2z" fill="rgb(26,89,0)"/>
<path d="M10 8h2v2h-2v-2z" fill="rgb(38,127,0)"/>
<path d="M12 8h2v2h-2v-2z" fill="rgb(34,117,0)"/>
<path d="M14 8h2v2h-2v-2z" fill="rgb(26,89,0)"/>
<path d="M16 8h2v2h-2v-2z" fill="rgb(37,37,37)"/>
<path d="M2 10h2v2h-2v-2z" fill="rgb(255,233,127)"/>
<path d="M4 10h4v2h-4v-2z" fill="rgb(255,204,0)"/>
<path d="M8 10h2v2h-2v-2z" fill="rgb(255,233,127)"/>
<path d="M10 10h4v2h-4v-2z" fill="rgb(255,204,0)"/>
<path d="M14 10h2v2h-2v-2z" fill="rgb(255,233,127)"/>
<path d="M16 10h2v2h-2v-2z" fill="rgb(38,127,0)"/>
<path d="M18 10h2v2h-2v-2z" fill="rgb(37,37,37)"/>
<path d="M20 10h2v8h-8v-2h2v-2h2v-2h2v-2z" fill="rgba(255,255,255,0)"/>
<path d="M2 12h2v2h-2v-2z" fill="rgb(26,89,0)"/>
<path d="M4 12h2v2h-2v-2z" fill="rgb(34,117,0)"/>
<path d="M6 12h2v2h-2v-2z" fill="rgb(38,127,0)"/>
<path d="M8 12h2v2h-2v-2z" fill="rgb(26,89,0)"/>
<path d="M10 12h2v2h-2v-2z" fill="rgb(38,127,0)"/>
<path d="M12 12h2v2h-2v-2z" fill="rgb(34,117,0)"/>
<path d="M14 12h2v2h-2v-2z" fill="rgb(26,89,0)"/>
<path d="M16 12h2v2h-2v-2z" fill="rgb(37,37,37)"/>
<path d="M0 14h2v2h2v2h-4v-4z" fill="rgba(255,255,255,0)"/>
<path d="M2 14h2v2h-2v-2z" fill="rgb(37,37,37)"/>
<path d="M4 14h2v2h-2v-2z" fill="rgb(30,65,16)"/>
<path d="M6 14h2v2h-2v-2z" fill="rgb(37,87,16)"/>
<path d="M8 14h2v2h-2v-2z" fill="rgb(30,65,16)"/>
<path d="M10 14h2v2h-2v-2z" fill="rgb(37,87,16)"/>
<path d="M12 14h2v2h-2v-2z" fill="rgb(30,65,16)"/>
<path d="M14 14h2v2h-2v-2z" fill="rgb(37,37,37)"/>
<path d="M4 16h10v2h-10v-2z" fill="rgb(37,37,37)"/>
</svg>

<svg xmlns="http://www.w3.org/2000/svg" width="22" height="18" preserveAspectRatio="xMinYMin meet"><path fill="rgba(255,255,255,0)" d="M0 0h4v2H2v2H0V0z"/><path fill="#A17FFF" d="M4 0h2v2H4V0z"/><path fill="rgba(255,255,255,0)" d="M6 0h2v2H6V0z"/><path fill="#A17FFF" d="M8 0h2v2H8V0z"/><path fill="rgba(255,255,255,0)" d="M10 0h2v2h-2V0z"/><path fill="#A17FFF" d="M12 0h2v2h-2V0z"/><path fill="rgba(255,255,255,0)" d="M14 0h8v6h-2V4h-4V2h-2V0z"/><path fill="#252525" d="M2 2h4v2H2V2z"/><path fill="#986BBF" d="M6 2h2v2H6V2z"/><path fill="#915C8F" d="M8 2h2v2H8V2z"/><path fill="#986BBF" d="M10 2h2v2h-2V2z"/><path fill="#252525" d="M12 2h4v2h-4V2zM0 4h2v10H0V4z"/><path fill="#1A5900" d="M2 4h2v2H2V4z"/><path fill="#227500" d="M4 4h2v2H4V4z"/><path fill="#267F00" d="M6 4h2v2H6V4z"/><path fill="#1A5900" d="M8 4h2v2H8V4z"/><path fill="#267F00" d="M10 4h2v2h-2V4z"/><path fill="#227500" d="M12 4h2v2h-2V4z"/><path fill="#1A5900" d="M14 4h2v2h-2V4z"/><path fill="#252525" d="M16 4h4v2h-4V4z"/><path fill="#FFE97F" d="M2 6h2v2H2V6z"/><path fill="#FC0" d="M4 6h4v2H4V6z"/><path fill="#FFE97F" d="M8 6h2v2H8V6z"/><path fill="#FC0" d="M10 6h4v2h-4V6z"/><path fill="#FFE97F" d="M14 6h2v2h-2V6z"/><path fill="#267F00" d="M16 6h2v2h-2V6z"/><path fill="#1A5900" d="M18 6h2v4h-2V6z"/><path fill="#252525" d="M20 6h2v4h-2V6z"/><path fill="#1A5900" d="M2 8h2v2H2V8z"/><path fill="#227500" d="M4 8h2v2H4V8z"/><path fill="#267F00" d="M6 8h2v2H6V8z"/><path fill="#1A5900" d="M8 8h2v2H8V8z"/><path fill="#267F00" d="M10 8h2v2h-2V8z"/><path fill="#227500" d="M12 8h2v2h-2V8z"/><path fill="#1A5900" d="M14 8h2v2h-2V8z"/><path fill="#252525" d="M16 8h2v2h-2V8z"/><path fill="#FFE97F" d="M2 10h2v2H2v-2z"/><path fill="#FC0" d="M4 10h4v2H4v-2z"/><path fill="#FFE97F" d="M8 10h2v2H8v-2z"/><path fill="#FC0" d="M10 10h4v2h-4v-2z"/><path fill="#FFE97F" d="M14 10h2v2h-2v-2z"/><path fill="#267F00" d="M16 10h2v2h-2v-2z"/><path fill="#252525" d="M18 10h2v2h-2v-2z"/><path fill="rgba(255,255,255,0)" d="M20 10h2v8h-8v-2h2v-2h2v-2h2v-2z"/><path fill="#1A5900" d="M2 12h2v2H2v-2z"/><path fill="#227500" d="M4 12h2v2H4v-2z"/><path fill="#267F00" d="M6 12h2v2H6v-2z"/><path fill="#1A5900" d="M8 12h2v2H8v-2z"/><path fill="#267F00" d="M10 12h2v2h-2v-2z"/><path fill="#227500" d="M12 12h2v2h-2v-2z"/><path fill="#1A5900" d="M14 12h2v2h-2v-2z"/><path fill="#252525" d="M16 12h2v2h-2v-2z"/><path fill="rgba(255,255,255,0)" d="M0 14h2v2h2v2H0v-4z"/><path fill="#252525" d="M2 14h2v2H2v-2z"/><path fill="#1E4110" d="M4 14h2v2H4v-2z"/><path fill="#255710" d="M6 14h2v2H6v-2z"/><path fill="#1E4110" d="M8 14h2v2H8v-2z"/><path fill="#255710" d="M10 14h2v2h-2v-2z"/><path fill="#1E4110" d="M12 14h2v2h-2v-2z"/><path fill="#252525" d="M14 14h2v2h-2v-2zM4 16h10v2H4v-2z"/></svg>
